X:1
T:Perry Merry Dictum  (Riddle Song)
M:2/4
L:1/8
K:G
 D| GG BB| A A/2A/2 G2| G/2F/2 G/2A/2 BB| AA G3/2| G/2| G G/2G/2 BB|\
 AA G2| G/2F/2 G/2A/2 BB| AA G2| gG GG| G G/2G/2 GG| G/2F/2 G/2A/2 BB|\
 AA G||
